X:919
T:Granny's Heilan Hame
C:Joe Buchanan's Scottish Tome - Page 540.1
I:540 1
Z:Carl Allison
R:Waltz
L:1/4
M:3/4
K:F
C/F/ | "F"A2 B | "C7"G2 B | "F"A F2- | "A#"F2 F | "Bb"D F2 | "D7"D2 F | "F"C3- | "A#"C3 | 
"Bb"D2 F | "Db7"D F2 | "F"C2 F | "D7"B2 A | "G"A2 G | "Bb7"G2 A | "C"G3- | "C"G2 C/F/ |
"F"A2 c | "C7"F2 B | "F"A F2- | "F"F2 F | "Bb"D F2 | "Gm"F2 F | "F"A3- | "A#"A3 |  
"F"C F2 | "Bb"D2 F | "F"C2 F | "D7"B2 A | "G7"G D2 | "C7"E2 C | "F"F3- | F2 |]

